X:1
M:4/4
K:Am
G/2|:B/2A/2B/2G/2 GB/2c/2|\
d/2B/2c/2B/2 Ad/2B/2|G/2A/2B/2c/2 d/2c/2B/2A/2|G/2F/2E/2F/2 GA/2G/2|
AA G/2E/2D/2F/2|AG/2G/2 F/2D/2F/2A/2|d/2c/2e/2f/2 g/2f/2e/2d/2|\
cc/2d/2 e/2f/2g/2d/2|
cA A/2c/2B/2A/2|FG/2A/2 cA/2c/2|B/2c/2c/2d/2 e/2e/2c/2d/2|\
B/2G/2E/2G/2 G/2A/2B/2c/2|dd d:|
f/2g/2|aa/2f/2 b/2b/2g/2f/2|e/2d/2e/2f/2 g/2f/2e/2d/2|f/2A/2e/2d/2 gf/2A/2|\
e/2c/2d/2e/2 f/2g/2f/2e/2|df d:|